X: 42
T: I Love Little Pussy
C: Elliott
%R: air, jig
B: "The Everyday Song Book", 1927
F: http://www.library.pitt.edu/happybirthday/pdf/The_Everyday_Song_Book.pdf
Z: 2017 John Chambers <jc:trillian.mit.edu>
N: The book has "pus-py" in bar 7, obviously a typo.
M: 6/8
L: 1/8
K: C
% - - - - - - - - - - - - - - -
(E/F/) | G G G G c B | A D D D2 (D/E/) | F F F
w: I* love lit-tle pus-sy, her coat is so warm, And* if I don't
%
F B A | G E E E2 (E/F/) | G G G (Gc) B |
w: hurt her, she'll do me no harm. I'll* sit by the fire* and
%
A D D D2 (D/E/) | F B A G He d | c C C C2 |]
w: give her some food And* pus-sy will love me be-cause I am good.
% - - - - - - - - - - - - - - -
